people/kirakusto/kira.svg

<svg width="210" height="210" fill="none" xmlns="http://www.w3.org/2000/svg"><path fill="#F498AD" d="M0 0h210v210H0z"/><path d="M147.225 175.106H64.88c-8.709 0-22.769-7.06-22.769-15.769v-31.77h120.883v31.77c0 8.709-7.06 15.769-15.769 15.769Z" fill="#18191C"/><path d="M165.698 96.414c-.798 0-1.583.05-2.358.137-7.224-24.954-30.24-43.2-57.52-43.2-27.282 0-50.299 18.246-57.523 43.2a21.036 21.036 0 0 0-2.355-.137c-11.483 0-20.792 9.307-20.792 20.791 0 11.482 9.309 20.789 20.792 20.789 1.75 0 3.447-.219 5.069-.626 9.283 21.047 30.328 35.737 54.809 35.737 24.478 0 45.523-14.69 54.807-35.737 1.624.407 3.322.626 5.071.626 11.482 0 20.79-9.307 20.79-20.789 0-11.484-9.308-20.791-20.79-20.791Z" fill="#FFD829"/><path d="M105.82 174.256c-23.858 0-45.527-13.926-55.471-35.558-1.45.297-2.929.447-4.407.447-12.099.001-21.942-9.842-21.942-21.94 0-12.099 9.843-21.941 21.942-21.941.495 0 1.004.019 1.521.056 7.801-25.435 31.66-43.118 58.356-43.118 26.695 0 50.552 17.683 58.353 43.118a21.317 21.317 0 0 1 1.525-.056c12.098 0 21.94 9.843 21.94 21.941 0 12.098-9.842 21.94-21.94 21.94a22 22 0 0 1-4.409-.447c-9.944 21.632-31.612 35.558-55.468 35.558Zm-54.148-38.239.392.888c9.391 21.293 30.492 35.051 53.756 35.051 23.263 0 44.363-13.758 53.755-35.051l.392-.888.94.236c1.567.393 3.179.592 4.792.592 10.83 0 19.64-8.811 19.64-19.64 0-10.83-8.811-19.641-19.64-19.641-.723 0-1.453.042-2.23.129l-.963.108-.27-.932C155.014 71.924 131.816 54.5 105.82 54.5c-25.997 0-49.197 17.423-56.419 42.368l-.27.932-.963-.108a19.984 19.984 0 0 0-2.226-.13c-10.831.002-19.642 8.812-19.642 19.642 0 10.829 8.812 19.64 19.642 19.64 1.612 0 3.223-.199 4.79-.592l.94-.236Z" fill="#18191C"/><path d="M48.158 126.717c-.311 0-.62-.125-.847-.372l-12.75-13.863a1.15 1.15 0 1 1 1.693-1.557l12.75 13.863a1.15 1.15 0 0 1-.846 1.929ZM160.994 126.717a1.15 1.15 0 0 1-.846-1.929l12.75-13.863a1.15 1.15 0 1 1 1.693 1.557l-12.75 13.863a1.147 1.147 0 0 1-.847.372ZM139.962 120.361a7.9 7.9 0 1 1-15.8.222 7.9 7.9 0 0 1 15.8-.222Z" fill="#18191C"/><path d="M115.965 122.266a1.15 1.15 0 0 1-.956-1.788 20.282 20.282 0 0 1 16.885-9.053 20.283 20.283 0 0 1 16.564 8.584 1.15 1.15 0 0 1-1.878 1.329c-3.427-4.848-8.986-7.648-14.938-7.61a17.988 17.988 0 0 0-14.718 8.026 1.154 1.154 0 0 1-.959.512ZM88.116 120.361a7.9 7.9 0 1 1-15.8.222 7.9 7.9 0 0 1 15.8-.222Z" fill="#18191C"/><path d="M64.119 122.266a1.15 1.15 0 0 1-.956-1.788 20.28 20.28 0 0 1 16.885-9.053 20.28 20.28 0 0 1 16.563 8.584 1.15 1.15 0 0 1-1.878 1.329 17.996 17.996 0 0 0-14.938-7.61 17.988 17.988 0 0 0-14.718 8.026 1.151 1.151 0 0 1-.958.512ZM105.821 135.094a1.15 1.15 0 0 1-1.15-1.15v-14.467a1.15 1.15 0 0 1 2.3 0v14.467a1.15 1.15 0 0 1-1.15 1.15ZM140.936 115.631a1.15 1.15 0 0 1-.953-1.793l3.778-5.604a1.15 1.15 0 1 1 1.907 1.285l-3.778 5.604c-.222.33-.584.508-.954.508ZM145.875 118.19a1.149 1.149 0 0 1-.749-2.024l4.455-3.811a1.15 1.15 0 0 1 1.496 1.748l-4.455 3.811a1.145 1.145 0 0 1-.747.276Z" fill="#18191C"/><path d="M66.444 118.19c-.265 0-.53-.091-.747-.276l-4.455-3.811a1.15 1.15 0 0 1 1.496-1.748l4.455 3.811a1.15 1.15 0 0 1-.749 2.024ZM70.551 115.631a1.15 1.15 0 0 1-.955-.508l-3.777-5.604a1.15 1.15 0 0 1 1.907-1.285l3.777 5.604a1.15 1.15 0 0 1-.952 1.793ZM138.168 143.073a1.621 1.621 0 1 0 0-3.243 1.621 1.621 0 0 0 0 3.243Z" fill="#18191C"/><path d="M168.744 146.812c-3.016.001-5.807-1.966-6.711-5.001-1.102-3.698 1.011-7.604 4.709-8.706a1.15 1.15 0 1 1 .658 2.205 4.706 4.706 0 0 0-3.163 5.845 4.703 4.703 0 0 0 5.845 3.161 4.703 4.703 0 0 0 3.162-5.844 1.151 1.151 0 0 1 .774-1.431 1.152 1.152 0 0 1 1.43.774 7.006 7.006 0 0 1-6.704 8.997ZM41.779 146.813a7.001 7.001 0 0 1-6.704-8.997 1.15 1.15 0 0 1 2.204.657 4.704 4.704 0 0 0 3.162 5.844 4.705 4.705 0 0 0 5.845-3.161 4.706 4.706 0 0 0-3.163-5.845 1.15 1.15 0 0 1 .658-2.205c3.698 1.103 5.811 5.008 4.709 8.706-.903 3.033-3.695 5-6.711 5.001Z" fill="#fff"/><path d="M105.708 144.719c-9.219.001-16.064-2.09-16.433-2.387a1.163 1.163 0 0 1-.43-.989c.048-.634.605-1.125 1.234-1.059.172.013.332.063.473.143 1.886.731 15.913 4.149 30.041-.098a1.15 1.15 0 0 1 .662 2.204c-5.437 1.633-10.806 2.186-15.547 2.186Z" fill="#18191C"/><path d="M139.005 50.744c-2.234 0-4.39.314-6.457.849C123.733 41.434 110.738 35 96.232 35c-8.958 0-17.028 2.449-23.917 6.705L38.79 61.353c2.454 3.739 4.857 5.71 6.822 6.744L33.612 81c4.295 3.399 8.96 3.536 13.065 2.435-12.842 18.389-1.06 60.528 5.353 79.734.57 1.708 3.082 1.267 3.056-.533-1.316-90.714 73.149-103.525 73.149-103.525l-7.604-3.891a59.849 59.849 0 0 1 30.027 18.334l.176-.001.002.202.211 25.428.111 7.338 13.063-9.301.003-.72.092-20.194c.002-14.218-11.093-25.562-25.311-25.562Z" fill="#18191C"/><path d="M128.235 59.11s-26.854-12.654-53.961 35.247c0 0 17.867-26.332 53.961-35.246Z" fill="#fff"/></svg>

<svg width="210" height="210" viewBox="0 0 210 210" fill="none" xmlns="http://www.w3.org/2000/svg">
<rect width="210" height="210" fill="#F498AD"/>
<path d="M147.225 175.106H64.88C56.171 175.106 42.111 168.046 42.111 159.337V127.567H162.994V159.337C162.994 168.046 155.934 175.106 147.225 175.106Z" fill="#18191C"/>
<path d="M165.698 96.4138C164.9 96.4138 164.115 96.4638 163.34 96.5508C156.116 71.5968 133.1 53.3508 105.82 53.3508C78.538 53.3508 55.521 71.5968 48.297 96.5508C47.525 96.4638 46.738 96.4138 45.942 96.4138C34.459 96.4138 25.15 105.721 25.15 117.205C25.15 128.687 34.459 137.994 45.942 137.994C47.692 137.994 49.389 137.775 51.011 137.368C60.294 158.415 81.339 173.105 105.82 173.105C130.298 173.105 151.343 158.415 160.627 137.368C162.251 137.775 163.949 137.994 165.698 137.994C177.18 137.994 186.488 128.687 186.488 117.205C186.488 105.721 177.18 96.4138 165.698 96.4138Z" fill="#FFD829"/>
<path d="M105.82 174.256C81.962 174.256 60.293 160.33 50.349 138.698C48.899 138.995 47.42 139.145 45.942 139.145C33.843 139.146 24 129.303 24 117.205C24 105.106 33.843 95.2639 45.942 95.2639C46.437 95.2639 46.946 95.2829 47.463 95.3199C55.264 69.8849 79.123 52.2019 105.819 52.2019C132.514 52.2019 156.371 69.8849 164.172 95.3199C164.69 95.2829 165.194 95.2639 165.697 95.2639C177.795 95.2639 187.637 105.107 187.637 117.205C187.637 129.303 177.795 139.145 165.697 139.145C164.218 139.145 162.739 138.995 161.288 138.698C151.344 160.33 129.676 174.256 105.82 174.256ZM51.672 136.017L52.064 136.905C61.455 158.198 82.556 171.956 105.82 171.956C129.083 171.956 150.183 158.198 159.575 136.905L159.967 136.017L160.907 136.253C162.474 136.646 164.086 136.845 165.699 136.845C176.529 136.845 185.339 128.034 185.339 117.205C185.339 106.375 176.528 97.5639 165.699 97.5639C164.976 97.5639 164.246 97.6059 163.469 97.6929L162.506 97.8009L162.236 96.8689C155.014 71.9239 131.816 54.5009 105.82 54.5009C79.823 54.5009 56.623 71.9239 49.401 96.8689L49.131 97.8009L48.168 97.6929C47.404 97.6069 46.656 97.5639 45.942 97.5639C35.111 97.5649 26.3 106.375 26.3 117.205C26.3 128.034 35.112 136.845 45.942 136.845C47.554 136.845 49.165 136.646 50.732 136.253L51.672 136.017Z" fill="#18191C"/>
<path d="M48.158 126.717C47.847 126.717 47.538 126.592 47.311 126.345L34.561 112.482C34.131 112.014 34.161 111.288 34.629 110.857C35.096 110.426 35.823 110.457 36.254 110.925L49.004 124.788C49.434 125.256 49.404 125.982 48.936 126.413C48.715 126.616 48.436 126.717 48.158 126.717Z" fill="#18191C"/>
<path d="M160.994 126.717C160.716 126.717 160.437 126.616 160.216 126.413C159.748 125.982 159.718 125.256 160.148 124.788L172.898 110.925C173.327 110.456 174.055 110.426 174.523 110.857C174.991 111.288 175.021 112.014 174.591 112.482L161.841 126.345C161.614 126.592 161.304 126.717 160.994 126.717Z" fill="#18191C"/>
<path d="M139.962 120.361C140.023 124.724 136.534 128.31 132.173 128.372C127.81 128.433 124.223 124.946 124.162 120.583C124.101 116.219 127.588 112.634 131.951 112.572C136.312 112.511 139.901 115.997 139.962 120.361Z" fill="#18191C"/>
<path d="M115.965 122.266C115.746 122.266 115.525 122.204 115.329 122.073C114.8 121.721 114.657 121.008 115.009 120.478C118.72 114.905 124.926 111.521 131.609 111.428C131.704 111.426 131.799 111.425 131.894 111.425C138.473 111.425 144.647 114.619 148.458 120.009C148.825 120.528 148.702 121.245 148.183 121.613C147.664 121.979 146.947 121.855 146.58 121.338C143.153 116.49 137.594 113.69 131.642 113.728C125.717 113.812 120.215 116.812 116.924 121.754C116.702 122.085 116.337 122.266 115.965 122.266Z" fill="#18191C"/>
<path d="M88.1161 120.361C88.1771 124.724 84.6881 128.31 80.3271 128.372C75.9641 128.433 72.3771 124.946 72.3161 120.583C72.2551 116.219 75.7421 112.634 80.1051 112.572C84.4661 112.511 88.0541 115.997 88.1161 120.361Z" fill="#18191C"/>
<path d="M64.119 122.266C63.9 122.266 63.679 122.204 63.483 122.073C62.954 121.721 62.811 121.008 63.163 120.478C66.873 114.905 73.079 111.521 79.763 111.428C79.858 111.426 79.953 111.425 80.048 111.425C86.627 111.425 92.801 114.619 96.611 120.009C96.978 120.528 96.855 121.245 96.336 121.613C95.818 121.979 95.1 121.855 94.733 121.338C91.305 116.489 85.728 113.654 79.795 113.728C73.87 113.812 68.368 116.812 65.077 121.754C64.856 122.085 64.491 122.266 64.119 122.266Z" fill="#18191C"/>
<path d="M105.821 135.094C105.186 135.094 104.671 134.578 104.671 133.944V119.477C104.671 118.842 105.186 118.327 105.821 118.327C106.456 118.327 106.971 118.843 106.971 119.477V133.944C106.971 134.578 106.456 135.094 105.821 135.094Z" fill="#18191C"/>
<path d="M140.936 115.631C140.715 115.631 140.491 115.568 140.294 115.434C139.767 115.08 139.628 114.365 139.983 113.838L143.761 108.234C144.116 107.707 144.831 107.566 145.357 107.923C145.884 108.277 146.023 108.992 145.668 109.519L141.89 115.123C141.668 115.453 141.306 115.631 140.936 115.631Z" fill="#18191C"/>
<path d="M145.875 118.19C145.55 118.19 145.228 118.053 145 117.787C144.587 117.305 144.644 116.579 145.126 116.166L149.581 112.355C150.064 111.942 150.789 111.999 151.203 112.482C151.616 112.964 151.559 113.69 151.077 114.103L146.622 117.914C146.406 118.099 146.14 118.19 145.875 118.19Z" fill="#18191C"/>
<path d="M66.444 118.19C66.179 118.19 65.914 118.099 65.697 117.914L61.242 114.103C60.76 113.69 60.703 112.964 61.116 112.482C61.529 111.998 62.255 111.942 62.738 112.355L67.193 116.166C67.675 116.579 67.732 117.305 67.319 117.787C67.091 118.053 66.768 118.19 66.444 118.19Z" fill="#18191C"/>
<path d="M70.551 115.631C70.181 115.631 69.819 115.453 69.596 115.123L65.819 109.519C65.464 108.993 65.603 108.278 66.13 107.922C66.656 107.568 67.371 107.707 67.726 108.234L71.503 113.838C71.858 114.364 71.719 115.079 71.192 115.435C70.996 115.568 70.772 115.631 70.551 115.631Z" fill="#18191C"/>
<path d="M138.168 143.073C139.063 143.073 139.789 142.347 139.789 141.452C139.789 140.557 139.063 139.831 138.168 139.831C137.273 139.831 136.547 140.557 136.547 141.452C136.547 142.347 137.273 143.073 138.168 143.073Z" fill="#18191C"/>
<path d="M168.744 146.812C165.728 146.813 162.937 144.846 162.033 141.811C160.931 138.113 163.044 134.207 166.742 133.105C167.352 132.924 167.991 133.269 168.173 133.879C168.355 134.487 168.008 135.128 167.4 135.31C164.917 136.05 163.498 138.672 164.237 141.155C164.976 143.638 167.598 145.056 170.082 144.316C172.565 143.577 173.983 140.956 173.244 138.472C173.063 137.864 173.409 137.223 174.018 137.041C174.625 136.862 175.267 137.206 175.448 137.815C176.55 141.513 174.437 145.419 170.738 146.52C170.075 146.718 169.404 146.812 168.744 146.812Z" fill="white"/>
<path d="M41.779 146.813C41.119 146.813 40.449 146.718 39.785 146.521C36.086 145.419 33.973 141.514 35.075 137.816C35.256 137.207 35.899 136.863 36.505 137.042C37.114 137.224 37.46 137.864 37.279 138.473C36.54 140.956 37.958 143.577 40.441 144.317C42.923 145.056 45.546 143.639 46.286 141.156C47.025 138.674 45.607 136.052 43.123 135.311C42.515 135.129 42.168 134.489 42.35 133.88C42.532 133.271 43.169 132.925 43.781 133.106C47.479 134.209 49.592 138.114 48.49 141.812C47.587 144.845 44.795 146.812 41.779 146.813Z" fill="white"/>
<path d="M105.708 144.719C96.489 144.72 89.644 142.629 89.275 142.332C88.98 142.095 88.816 141.721 88.845 141.343C88.893 140.709 89.45 140.218 90.079 140.284C90.251 140.297 90.411 140.347 90.552 140.427C92.438 141.158 106.465 144.576 120.593 140.329C121.202 140.146 121.843 140.492 122.026 141.1C122.209 141.708 121.864 142.35 121.255 142.533C115.818 144.166 110.449 144.719 105.708 144.719Z" fill="#18191C"/>
<path d="M139.005 50.744C136.771 50.744 134.615 51.058 132.548 51.593C123.733 41.434 110.738 35 96.2321 35C87.2741 35 79.2041 37.449 72.3151 41.705L38.7891 61.353C41.2431 65.092 43.6461 67.063 45.6111 68.097L33.6121 81C37.9071 84.399 42.5711 84.536 46.6771 83.435C33.8351 101.824 45.6161 143.963 52.0301 163.169C52.6001 164.877 55.1121 164.436 55.0861 162.636C53.7701 71.922 128.235 59.111 128.235 59.111L120.631 55.22C132.428 58.225 142.833 64.715 150.658 73.554L150.834 73.553L150.836 73.755L151.047 99.183L151.158 106.521L164.221 97.22L164.224 96.5L164.316 76.306C164.318 62.088 153.223 50.744 139.005 50.744Z" fill="#18191C"/>
<path d="M128.235 59.1109C128.235 59.1109 101.381 46.4559 74.274 94.3569C74.274 94.3569 92.141 68.0249 128.235 59.1109Z" fill="white"/>
</svg>
